img/misc/schema_type_sw.svg

<svg height="256" viewBox="0 0 256 256" width="256" xmlns="http://www.w3.org/2000/svg">
  <g fill="#001851" fill-rule="evenodd" transform="matrix(.07100423 0 0 .07100423 2.063757 177.03575)">
    <path d="m816.95318-2214.9085c-724.608152 6.9753-793.555227 1326.15874-799.293857 1902.18363 99.186507-301.2184 282.744397-1006.28753 570.664137-1000.97243 440.56214 8.133 1288.21724 2150.05406 1964.39214 2147.4107 745.7908-2.91546 984.8062-1507.5982 976.716-1904.1106-145.8831 479.98115-393.4371 1003.051099-679.209 1002.340645-411.0888-1.022014-1379.9547-2153.141045-2033.26942-2146.851945zm891.77132 1285.95073c379.1433 445.94219 776.0534 1433.94934 1288.8192 1122.50131-465.377 912.80516-946.3453-163.296453-1273.4925-646.89216-284.3264-420.29688-764.08361-1429.04078-1305.2365-1111.70568 445.36236-926.0472 968.2253 257.7364 1289.9098 636.09653z"/>
    <path d="m268.57143-1400.4164c22.85714 5.0347 565.71428 0 565.71428 0l1491.42859 2054.20369h474.2857l377.1429-553.829414-508.5715-20.139215-1611.4285-2089.447461-485.71433 5.0348z" fill-opacity=".392405"/>
  </g>
</svg>

<?xml version="1.0" encoding="UTF-8" standalone="no"?>
<svg
   xmlns:dc="http://purl.org/dc/elements/1.1/"
   xmlns:cc="http://creativecommons.org/ns#"
   xmlns:rdf="http://www.w3.org/1999/02/22-rdf-syntax-ns#"
   xmlns:svg="http://www.w3.org/2000/svg"
   xmlns="http://www.w3.org/2000/svg"
   width="256"
   height="256"
   viewBox="0 0 256 256"
   id="svg4882"
   version="1.1">
  <defs
     id="defs4884" />
  <metadata
     id="metadata4887">
    <rdf:RDF>
      <cc:Work
         rdf:about="">
        <dc:format>image/svg+xml</dc:format>
        <dc:type
           rdf:resource="http://purl.org/dc/dcmitype/StillImage" />
        <dc:title></dc:title>
      </cc:Work>
    </rdf:RDF>
  </metadata>
  <g
     id="layer1"
     transform="matrix(0.07100423,0,0,0.07100423,2.0637574,177.03575)">
    <path
       style="color:#000000;font-style:normal;font-variant:normal;font-weight:normal;font-stretch:normal;font-size:medium;line-height:normal;font-family:sans-serif;text-indent:0;text-align:start;text-decoration:none;text-decoration-line:none;text-decoration-style:solid;text-decoration-color:#000000;letter-spacing:normal;word-spacing:normal;text-transform:none;direction:ltr;block-progression:tb;writing-mode:lr-tb;baseline-shift:baseline;text-anchor:start;white-space:normal;clip-rule:nonzero;display:inline;overflow:visible;visibility:visible;opacity:1;isolation:auto;mix-blend-mode:normal;color-interpolation:sRGB;color-interpolation-filters:linearRGB;solid-color:#000000;solid-opacity:1;fill:#001851;fill-opacity:1;fill-rule:evenodd;stroke:none;stroke-width:328.67059326;stroke-linecap:butt;stroke-linejoin:miter;stroke-miterlimit:4;stroke-dasharray:none;stroke-dashoffset:0;stroke-opacity:1;color-rendering:auto;image-rendering:auto;shape-rendering:auto;text-rendering:auto;enable-background:accumulate"
       d="M 816.95318,-2214.9085 C 92.345028,-2207.9332 23.397953,-888.74976 17.659323,-312.72487 116.84583,-613.94327 300.40372,-1319.0124 588.32346,-1313.6973 c 440.56214,8.133 1288.21724,2150.05406 1964.39214,2147.4107 745.7908,-2.91546 984.8062,-1507.5982 976.716,-1904.1106 C 3383.5485,-590.41605 3135.9945,-67.346101 2850.2226,-68.056555 2439.1338,-69.078569 1470.2679,-2221.1976 816.95318,-2214.9085 Z M 1708.7245,-928.95777 C 2087.8678,-483.01558 2484.7779,504.99157 2997.5437,193.54354 2532.1667,1106.3487 2051.1984,30.247087 1724.0512,-453.34862 1439.7248,-873.6455 959.96759,-1882.3894 418.8147,-1565.0543 c 445.36236,-926.0472 968.2253,257.7364 1289.9098,636.09653 z"
       id="path5430" />
    <path
       style="fill:#001851;fill-opacity:0.39240507;fill-rule:evenodd;stroke:none;stroke-width:1px;stroke-linecap:butt;stroke-linejoin:miter;stroke-opacity:1"
       d="m 268.57143,-1400.4164 c 22.85714,5.0347 565.71428,0 565.71428,0 L 2325.7143,653.78729 2800,653.78729 3177.1429,99.957876 2668.5714,79.818661 1057.1429,-2009.6288 l -485.71433,5.0348 z"
       id="path5485" />
  </g>
</svg>
